X: 166
T: the Old Plaid Shawl   #2
R: air, waltz
%S: s:2 b:10(6+4)
Q: "Slow"
O: J.O'Neill
B: O'Neill's 1850 #166
Z: 1997 henrik.norbeck@mailbox.swipnet.se
N: Compacted via repeats and multiple endings [JC]
N: Compacted by using labels and play order [JC]
P: Play A2A2 BA2
M: 3/4
L: 1/8
K: G
"^A"[|] (d/c/) BB | (B2 A)G FG | A2 de fg |1 (e2 c)A GG | F3 :|2 (e>c) (AF) GG | "^fine"G3 |]
"^B"[| (d/e/) ff | (f2 e)d ^cA | d3 (d/e/) fg | (e2 c)A GG | "^->A2"F3 |]
